public/img/imgComponents/StartVoting/networking.svg

<?xml version="1.0" encoding="iso-8859-1"?>
<!-- Generator: Adobe Illustrator 19.0.0, SVG Export Plug-In . SVG Version: 6.00 Build 0)  -->
<svg xmlns="http://www.w3.org/2000/svg" xmlns:xlink="http://www.w3.org/1999/xlink" version="1.1" id="Capa_1" x="0px" y="0px" viewBox="0 0 512 512" style="enable-background:new 0 0 512 512;" xml:space="preserve" width="512" height="512">
<g>
	<path d="M451.279,270.924h-14.571h-13.645h-14.571c-17.984,0-34.938,7.904-46.515,21.687c-2.664,3.172-2.252,7.903,0.919,10.567   c3.174,2.665,7.903,2.252,10.567-0.919c8.719-10.381,21.486-16.335,35.028-16.335h5.089l-11.488,48.527   c-0.584,2.465,0.116,5.058,1.861,6.894l20.495,21.568c1.416,1.49,3.381,2.334,5.437,2.334s4.021-0.844,5.437-2.334l20.495-21.568   c1.745-1.836,2.445-4.429,1.861-6.894l-11.488-48.527h5.089c25.211,0,45.721,20.51,45.721,45.721v48.11H390.529   c-4.143,0-7.5,3.357-7.5,7.5s3.357,7.5,7.5,7.5h109.819c6.425,0,11.651-5.227,11.651-11.651v-51.459   C512,298.163,484.761,270.924,451.279,270.924z M442.147,333.956l-12.262,12.903l-12.262-12.903l11.371-48.032h1.781   L442.147,333.956z"/>
	<path d="M429.886,259.56c33.838,0,61.367-27.529,61.367-61.367v-22.845v-12.214c0-2.969-0.227-5.887-0.663-8.736   c-4.22-27.541-28.073-48.704-56.775-48.704h-7.857c-28.703,0-52.555,21.163-56.775,48.704c-0.437,2.849-0.663,5.766-0.663,8.736   v9.551v25.508C368.519,232.03,396.048,259.56,429.886,259.56z M425.957,120.695h7.857c23.4,0,42.438,19.038,42.438,42.438v1.799   c-9.933-4.074-16.949-9.618-18.738-15.132c-0.88-2.709-3.218-4.687-6.036-5.104c-2.817-0.416-5.629,0.799-7.255,3.137   c-8.281,11.908-38.67,22.46-60.705,18.87v-3.57C383.519,139.733,402.557,120.695,425.957,120.695z M383.519,181.808   c22.016,2.63,49.888-4.906,65.417-17.449c7.364,8.607,19.021,13.766,27.317,16.549v17.285c0,25.567-20.8,46.367-46.367,46.367   s-46.367-20.8-46.367-46.367V181.808z"/>
	<path d="M149.132,303.224c3.174-2.661,3.59-7.392,0.93-10.566c-11.578-13.812-28.546-21.733-46.554-21.733H88.937H75.292H60.721   C27.239,270.924,0,298.162,0,331.644v51.46c0,6.425,5.227,11.651,11.651,11.651h109.815c4.143,0,7.5-3.357,7.5-7.5   s-3.357-7.5-7.5-7.5H15v-48.111c0-25.21,20.51-45.72,45.721-45.72h5.089l-11.488,48.527c-0.584,2.465,0.116,5.058,1.861,6.894   l20.495,21.568c1.416,1.49,3.381,2.334,5.437,2.334s4.021-0.844,5.437-2.334l20.495-21.568c1.745-1.836,2.445-4.429,1.861-6.894   l-11.488-48.527h5.089c13.56,0,26.337,5.967,35.058,16.37C141.227,305.468,145.955,305.882,149.132,303.224z M94.376,333.956   l-12.262,12.903l-12.262-12.903l11.371-48.032h1.781L94.376,333.956z"/>
	<path d="M20.75,198.19c0,33.839,27.526,61.369,61.36,61.369c33.84,0,61.37-27.53,61.37-61.369V163.13   c0-0.968-0.033-1.943-0.083-2.92c12.206-9.312,20.102-24,20.102-40.502v-17.481c0-4.143-3.357-7.5-7.5-7.5H71.609   c-3.383,0-6.766,0.335-10.056,0.995c-4.061,0.815-6.692,4.769-5.877,8.83c0.816,4.061,4.771,6.691,8.83,5.877   c2.319-0.466,4.709-0.702,7.103-0.702H148.5v9.981c0,19.811-16.116,35.927-35.927,35.927H35.747v-10.046   c0-8.336,2.922-16.454,8.228-22.857c2.643-3.19,2.199-7.918-0.99-10.561c-3.192-2.643-7.918-2.199-10.561,0.99   c-7.53,9.089-11.677,20.605-11.677,32.428v17.546c0,0.02,0.003,0.039,0.003,0.058V198.19z M128.48,168.076v30.115   c0,25.568-20.802,46.369-46.37,46.369c-25.563,0-46.36-20.801-46.36-46.369v-27.557h76.823   C118.128,170.634,123.472,169.728,128.48,168.076z"/>
	<path d="M320.777,284.427c-0.116-0.062-0.229-0.129-0.349-0.185c-0.809-0.375-1.624-0.732-2.441-1.079   c-0.097-0.042-0.195-0.081-0.292-0.122c-4.935-2.076-10.013-3.649-15.203-4.714c-0.001,0-0.002,0-0.003,0   c-1.333-0.273-2.672-0.514-4.019-0.72c-0.013-0.002-0.026-0.004-0.038-0.006c-1.343-0.205-2.693-0.378-4.049-0.516   c-0.029-0.003-0.058-0.005-0.088-0.008c-1.354-0.136-2.713-0.242-4.079-0.311c-0.03-0.001-0.06-0.002-0.09-0.003   c-1.379-0.068-2.763-0.106-4.153-0.106h-0.442h-59.059h-0.443c-1.39,0-2.774,0.038-4.152,0.106c-0.03,0.001-0.06,0.002-0.091,0.003   c-1.367,0.069-2.728,0.175-4.083,0.312c-0.027,0.003-0.055,0.005-0.082,0.008c-1.359,0.138-2.712,0.312-4.058,0.517   c-0.009,0.001-0.018,0.002-0.026,0.004c-6.596,1.009-13.025,2.825-19.23,5.435c-0.097,0.041-0.196,0.081-0.293,0.122   c-0.817,0.348-1.631,0.704-2.44,1.079c-0.12,0.056-0.232,0.123-0.348,0.184c-27.893,13.12-47.257,41.481-47.257,74.292v67.911   c0,9.649,7.851,17.5,17.5,17.5h189.066c9.649,0,17.5-7.851,17.5-17.5v-67.91C368.033,325.908,348.67,297.547,320.777,284.427z    M280.236,343.044l-4.962-27.26c8.732-5.29,14.812-13.895,16.924-23.827c0.075,0.007,0.151,0.01,0.225,0.017   c0.224,0.021,0.447,0.042,0.67,0.065c2.152,0.229,4.276,0.553,6.363,0.981c0.017,0.003,0.034,0.007,0.051,0.011   c1.001,0.206,1.992,0.438,2.976,0.688c0.167,0.042,0.334,0.087,0.501,0.13c0.866,0.228,1.725,0.473,2.577,0.734   c0.166,0.051,0.333,0.099,0.499,0.151c0.181,0.057,0.358,0.124,0.539,0.183L280.236,343.044z M205.398,294.918   c0.18-0.059,0.355-0.125,0.536-0.182c0.17-0.054,0.34-0.103,0.51-0.155c0.848-0.259,1.702-0.503,2.563-0.729   c0.171-0.045,0.342-0.09,0.513-0.134c0.979-0.249,1.964-0.479,2.96-0.685c0.022-0.004,0.044-0.01,0.066-0.015   c2.085-0.427,4.207-0.751,6.357-0.979c0.225-0.024,0.45-0.044,0.675-0.066c0.074-0.007,0.149-0.01,0.224-0.017   c2.112,9.933,8.192,18.538,16.924,23.828l-4.962,27.26L205.398,294.918z M259.512,312.946l9.28,50.986L256,387.282l-12.792-23.35   l9.28-50.986c0.64-3.516-1.29-6.994-4.611-8.313c-6.015-2.389-10.514-7.151-12.607-12.976h41.46   c-2.093,5.825-6.592,10.587-12.607,12.976C260.802,305.952,258.872,309.431,259.512,312.946z M353.033,426.629   c0,1.379-1.121,2.5-2.5,2.5H161.467c-1.379,0-2.5-1.121-2.5-2.5v-67.911c0-24.44,13.147-45.86,32.735-57.581l57.721,105.359   c1.315,2.402,3.838,3.896,6.577,3.896s5.262-1.494,6.577-3.896l57.72-105.359c19.589,11.722,32.736,33.142,32.736,57.582V426.629z"/>
	<path d="M255.777,262.528c18.109,0,35.731-6.376,49.62-17.954c3.182-2.652,3.61-7.382,0.958-10.563s-7.383-3.61-10.563-0.958   c-11.197,9.335-25.408,14.476-40.015,14.476c-34.482,0-62.536-28.054-62.536-62.536v-28.887   c10.801,8.558,23.17,15.272,33.877,18.047c2.849,0.739,5.862-0.256,7.712-2.541c1.85-2.286,2.193-5.442,0.878-8.073   c-2.301-4.603-5.396-11.878-6.678-19.773c10.267,7.365,23.158,14.122,31.716,18.3c18.903,9.228,39.957,17.33,57.568,22.22v0.708   c0,9.203-1.95,18.063-5.797,26.332c-1.746,3.756-0.118,8.217,3.638,9.964c3.755,1.744,8.216,0.117,9.964-3.638   c4.774-10.267,7.195-21.254,7.195-32.658v-6.481v-38.603c0-39.722-32.315-72.037-72.037-72.037h-10.999   c-1.221,0-2.438,0.032-3.649,0.093c-0.254,0.013-0.504,0.04-0.757,0.055c-0.966,0.058-1.93,0.124-2.888,0.22   c-0.185,0.019-0.366,0.047-0.55,0.067c-1.033,0.111-2.063,0.238-3.087,0.393c-0.058,0.009-0.115,0.021-0.173,0.03   c-14.849,2.288-28.576,9.143-39.464,19.884c-8.564,8.448-14.75,18.685-18.219,29.876c-0.023,0.074-0.042,0.149-0.065,0.224   c-0.306,0.999-0.596,2.003-0.859,3.017c-0.145,0.555-0.267,1.119-0.399,1.679c-0.126,0.539-0.261,1.074-0.374,1.616   c-0.181,0.858-0.335,1.726-0.485,2.595c-0.044,0.255-0.096,0.507-0.136,0.763c-0.166,1.027-0.303,2.062-0.425,3.103   c-0.012,0.107-0.029,0.214-0.041,0.321c-0.124,1.1-0.218,2.208-0.292,3.322c-0.004,0.059-0.01,0.117-0.013,0.176   c-0.07,1.104-0.111,2.216-0.131,3.333c-0.001,0.059-0.006,0.117-0.007,0.175c0,0.014,0.001,0.028,0.001,0.042   c-0.005,0.352-0.027,0.7-0.027,1.054v45.084C178.241,227.746,213.023,262.528,255.777,262.528z M261.277,82.871   c31.45,0,57.037,25.587,57.037,57.037v28.782c-36.064-10.69-80.854-33.074-90.296-45.773c-1.432-1.926-3.676-3.024-6.018-3.024   c-0.5,0-1.005,0.05-1.507,0.152c-2.853,0.585-5.109,2.769-5.788,5.601c-1.268,5.293-2.333,14.767,1.041,27.547   c-7.955-4.485-16.027-10.587-22.361-17.1c1.796-26.827,22.431-48.734,48.595-52.611c0.048-0.007,0.096-0.012,0.144-0.019   c0.843-0.123,1.691-0.228,2.544-0.313c0.326-0.032,0.656-0.049,0.983-0.075c0.593-0.048,1.186-0.102,1.784-0.132   c0.942-0.046,1.889-0.072,2.842-0.072H261.277z"/>
</g>















</svg>

<svg width="512" height="512" viewBox="0 0 512 512" fill="none" xmlns="http://www.w3.org/2000/svg">
<path d="M451.279 270.924H436.708H423.063H408.492C390.508 270.924 373.554 278.828 361.977 292.611C359.313 295.783 359.725 300.514 362.896 303.178C366.07 305.843 370.799 305.43 373.463 302.259C382.182 291.878 394.949 285.924 408.491 285.924H413.58L402.092 334.451C401.508 336.916 402.208 339.509 403.953 341.345L424.448 362.913C425.864 364.403 427.829 365.247 429.885 365.247C431.941 365.247 433.906 364.403 435.322 362.913L455.817 341.345C457.562 339.509 458.262 336.916 457.678 334.451L446.19 285.924H451.279C476.49 285.924 497 306.434 497 331.645V379.755H390.529C386.386 379.755 383.029 383.112 383.029 387.255C383.029 391.398 386.386 394.755 390.529 394.755H500.348C506.773 394.755 511.999 389.528 511.999 383.104V331.645C512 298.163 484.761 270.924 451.279 270.924ZM442.147 333.956L429.885 346.859L417.623 333.956L428.994 285.924H430.775L442.147 333.956Z" fill="#FFB900"/>
<path d="M429.886 259.56C463.724 259.56 491.253 232.031 491.253 198.193V175.348V163.134C491.253 160.165 491.026 157.247 490.59 154.398C486.37 126.857 462.517 105.694 433.815 105.694H425.958C397.255 105.694 373.403 126.857 369.183 154.398C368.746 157.247 368.52 160.164 368.52 163.134V172.685V198.193C368.519 232.03 396.048 259.56 429.886 259.56ZM425.957 120.695H433.814C457.214 120.695 476.252 139.733 476.252 163.133V164.932C466.319 160.858 459.303 155.314 457.514 149.8C456.634 147.091 454.296 145.113 451.478 144.696C448.661 144.28 445.849 145.495 444.223 147.833C435.942 159.741 405.553 170.293 383.518 166.703V163.133C383.519 139.733 402.557 120.695 425.957 120.695ZM383.519 181.808C405.535 184.438 433.407 176.902 448.936 164.359C456.3 172.966 467.957 178.125 476.253 180.908V198.193C476.253 223.76 455.453 244.56 429.886 244.56C404.319 244.56 383.519 223.76 383.519 198.193V181.808Z" fill="#FFB900"/>
<path d="M149.132 303.224C152.306 300.563 152.722 295.832 150.062 292.658C138.484 278.846 121.516 270.925 103.508 270.925H88.937H75.292H60.721C27.239 270.924 0 298.162 0 331.644V383.104C0 389.529 5.227 394.755 11.651 394.755H121.466C125.609 394.755 128.966 391.398 128.966 387.255C128.966 383.112 125.609 379.755 121.466 379.755H15V331.644C15 306.434 35.51 285.924 60.721 285.924H65.81L54.322 334.451C53.738 336.916 54.438 339.509 56.183 341.345L76.678 362.913C78.094 364.403 80.059 365.247 82.115 365.247C84.171 365.247 86.136 364.403 87.552 362.913L108.047 341.345C109.792 339.509 110.492 336.916 109.908 334.451L98.42 285.924H103.509C117.069 285.924 129.846 291.891 138.567 302.294C141.227 305.468 145.955 305.882 149.132 303.224ZM94.376 333.956L82.114 346.859L69.852 333.956L81.223 285.924H83.004L94.376 333.956Z" fill="#FFB900"/>
<path d="M20.7501 198.19C20.7501 232.029 48.2761 259.559 82.1101 259.559C115.95 259.559 143.48 232.029 143.48 198.19V163.13C143.48 162.162 143.447 161.187 143.397 160.21C155.603 150.898 163.499 136.21 163.499 119.708V102.227C163.499 98.084 160.142 94.727 155.999 94.727H71.6091C68.2261 94.727 64.8431 95.062 61.5531 95.722C57.4921 96.537 54.8611 100.491 55.6761 104.552C56.4921 108.613 60.4471 111.243 64.5061 110.429C66.8251 109.963 69.2151 109.727 71.6091 109.727H148.5V119.708C148.5 139.519 132.384 155.635 112.573 155.635H35.7471V145.589C35.7471 137.253 38.6691 129.135 43.9751 122.732C46.6181 119.542 46.1741 114.814 42.9851 112.171C39.7931 109.528 35.0671 109.972 32.4241 113.161C24.8941 122.25 20.7471 133.766 20.7471 145.589V163.135C20.7471 163.155 20.7501 163.174 20.7501 163.193V198.19ZM128.48 168.076V198.191C128.48 223.759 107.678 244.56 82.1101 244.56C56.5471 244.56 35.7501 223.759 35.7501 198.191V170.634H112.573C118.128 170.634 123.472 169.728 128.48 168.076Z" fill="#FFB900"/>
<path d="M320.777 284.427C320.661 284.365 320.548 284.298 320.428 284.242C319.619 283.867 318.804 283.51 317.987 283.163C317.89 283.121 317.792 283.082 317.695 283.041C312.76 280.965 307.682 279.392 302.492 278.327C302.491 278.327 302.49 278.327 302.489 278.327C301.156 278.054 299.817 277.813 298.47 277.607C298.457 277.605 298.444 277.603 298.432 277.601C297.089 277.396 295.739 277.223 294.383 277.085C294.354 277.082 294.325 277.08 294.295 277.077C292.941 276.941 291.582 276.835 290.216 276.766C290.186 276.765 290.156 276.764 290.126 276.763C288.747 276.695 287.363 276.657 285.973 276.657H285.531H226.472H226.029C224.639 276.657 223.255 276.695 221.877 276.763C221.847 276.764 221.817 276.765 221.786 276.766C220.419 276.835 219.058 276.941 217.703 277.078C217.676 277.081 217.648 277.083 217.621 277.086C216.262 277.224 214.909 277.398 213.563 277.603C213.554 277.604 213.545 277.605 213.537 277.607C206.941 278.616 200.512 280.432 194.307 283.042C194.21 283.083 194.111 283.123 194.014 283.164C193.197 283.512 192.383 283.868 191.574 284.243C191.454 284.299 191.342 284.366 191.226 284.427C163.333 297.547 143.969 325.908 143.969 358.719V426.63C143.969 436.279 151.82 444.13 161.469 444.13H350.535C360.184 444.13 368.035 436.279 368.035 426.63V358.72C368.033 325.908 348.67 297.547 320.777 284.427ZM280.236 343.044L275.274 315.784C284.006 310.494 290.086 301.889 292.198 291.957C292.273 291.964 292.349 291.967 292.423 291.974C292.647 291.995 292.87 292.016 293.093 292.039C295.245 292.268 297.369 292.592 299.456 293.02C299.473 293.023 299.49 293.027 299.507 293.031C300.508 293.237 301.499 293.469 302.483 293.719C302.65 293.761 302.817 293.806 302.984 293.849C303.85 294.077 304.709 294.322 305.561 294.583C305.727 294.634 305.894 294.682 306.06 294.734C306.241 294.791 306.418 294.858 306.599 294.917L280.236 343.044ZM205.398 294.918C205.578 294.859 205.753 294.793 205.934 294.736C206.104 294.682 206.274 294.633 206.444 294.581C207.292 294.322 208.146 294.078 209.007 293.852C209.178 293.807 209.349 293.762 209.52 293.718C210.499 293.469 211.484 293.239 212.48 293.033C212.502 293.029 212.524 293.023 212.546 293.018C214.631 292.591 216.753 292.267 218.903 292.039C219.128 292.015 219.353 291.995 219.578 291.973C219.652 291.966 219.727 291.963 219.802 291.956C221.914 301.889 227.994 310.494 236.726 315.784L231.764 343.044L205.398 294.918ZM259.512 312.946L268.792 363.932L256 387.282L243.208 363.932L252.488 312.946C253.128 309.43 251.198 305.952 247.877 304.633C241.862 302.244 237.363 297.482 235.27 291.657H276.73C274.637 297.482 270.138 302.244 264.123 304.633C260.802 305.952 258.872 309.431 259.512 312.946ZM353.033 426.629C353.033 428.008 351.912 429.129 350.533 429.129H161.467C160.088 429.129 158.967 428.008 158.967 426.629V358.718C158.967 334.278 172.114 312.858 191.702 301.137L249.423 406.496C250.738 408.898 253.261 410.392 256 410.392C258.739 410.392 261.262 408.898 262.577 406.496L320.297 301.137C339.886 312.859 353.033 334.279 353.033 358.719V426.629Z" fill="#FFB900"/>
<path d="M255.777 262.528C273.886 262.528 291.508 256.152 305.397 244.574C308.579 241.922 309.007 237.192 306.355 234.011C303.703 230.83 298.972 230.401 295.792 233.053C284.595 242.388 270.384 247.529 255.777 247.529C221.295 247.529 193.241 219.475 193.241 184.993V156.106C204.042 164.664 216.411 171.378 227.118 174.153C229.967 174.892 232.98 173.897 234.83 171.612C236.68 169.326 237.023 166.17 235.708 163.539C233.407 158.936 230.312 151.661 229.03 143.766C239.297 151.131 252.188 157.888 260.746 162.066C279.649 171.294 300.703 179.396 318.314 184.286V184.994C318.314 194.197 316.364 203.057 312.517 211.326C310.771 215.082 312.399 219.543 316.155 221.29C319.91 223.034 324.371 221.407 326.119 217.652C330.893 207.385 333.314 196.398 333.314 184.994V178.513V139.91C333.314 100.188 300.999 67.873 261.277 67.873H250.278C249.057 67.873 247.84 67.905 246.629 67.966C246.375 67.979 246.125 68.006 245.872 68.021C244.906 68.079 243.942 68.145 242.984 68.241C242.799 68.26 242.618 68.288 242.434 68.308C241.401 68.419 240.371 68.546 239.347 68.701C239.289 68.71 239.232 68.722 239.174 68.731C224.325 71.019 210.598 77.874 199.71 88.615C191.146 97.063 184.96 107.3 181.491 118.491C181.468 118.565 181.449 118.64 181.426 118.715C181.12 119.714 180.83 120.718 180.567 121.732C180.422 122.287 180.3 122.851 180.168 123.411C180.042 123.95 179.907 124.485 179.794 125.027C179.613 125.885 179.459 126.753 179.309 127.622C179.265 127.877 179.213 128.129 179.173 128.385C179.007 129.412 178.87 130.447 178.748 131.488C178.736 131.595 178.719 131.702 178.707 131.809C178.583 132.909 178.489 134.017 178.415 135.131C178.411 135.19 178.405 135.248 178.402 135.307C178.332 136.411 178.291 137.523 178.271 138.64C178.27 138.699 178.265 138.757 178.264 138.815C178.264 138.829 178.265 138.843 178.265 138.857C178.26 139.209 178.238 139.557 178.238 139.911V184.995C178.241 227.746 213.023 262.528 255.777 262.528ZM261.277 82.871C292.727 82.871 318.314 108.458 318.314 139.908V168.69C282.25 158 237.46 135.616 228.018 122.917C226.586 120.991 224.342 119.893 222 119.893C221.5 119.893 220.995 119.943 220.493 120.045C217.64 120.63 215.384 122.814 214.705 125.646C213.437 130.939 212.372 140.413 215.746 153.193C207.791 148.708 199.719 142.606 193.385 136.093C195.181 109.266 215.816 87.359 241.98 83.482C242.028 83.475 242.076 83.47 242.124 83.463C242.967 83.34 243.815 83.235 244.668 83.15C244.994 83.118 245.324 83.101 245.651 83.075C246.244 83.027 246.837 82.973 247.435 82.943C248.377 82.897 249.324 82.871 250.277 82.871H261.277V82.871Z" fill="#FFB900"/>
</svg>
